X: 4
T: Buttermilk Mary
M: 6/8
L: 1/8
K: A Major
|: A/B/ |\
cAE FEC | EAc ecA | def edc | cBB Bed |
cea ecA | daf ecA | dfd ced | cAA A2 :|
|: c/d/ |\
eaa agf | ecA Ace | fbb b2 a | gee efg |
aba gag | fgf efg | aec Bed | cAA A2 :|
&amp; ~ |: A/B/ | cAF FEC | ~
